other/rozetka.svg

<?xml version="1.0" encoding="UTF-8"?><svg id="a" xmlns="http://www.w3.org/2000/svg" viewBox="0 0 48 48"><defs><style>.c{fill:none;stroke:#fff;stroke-linecap:round;stroke-linejoin:round;}</style></defs><path class="c" d="m19.03,21.3c8.79-9.2,15.49-8.51,11.79-.92.46-5.29-4.62-5.29-11.79.92Z"/><path class="c" d="m23.33,12.14c4.95-6.02,10.03-5.33,10.73.88-2.55-3.45-7.4-2.99-10.73-.88Z"/><path class="c" d="m14.61,11.36c1.86.29,2.96,3.11,2.47,6.32-.49,3.2-2.4,5.57-4.25,5.28-1.86-.28-2.97-3.11-2.47-6.32.49-3.2,2.39-5.57,4.25-5.28Z"/><path class="c" d="m13.26,16.93c1.15,7.13,5.31-4.83.69-1.61.6133,1.0733.3833,1.61-.69,1.61Z"/><path class="c" d="m7.94,25.44c7.86,2.3,18.26,2.07,31.2-6.44-4.62,21.62-19.18,35.66-31.2,6.44Z"/><path class="c" d="m18.34,40.62c3.93-5.29,5.09-6.67,14.56-5.52"/><path class="c" d="m17.1965,3.599c1.0733,1.6867,1.8335,3.901,1.8335,6.201-1.3867-3.5267-4.6245-4.3843-9.2445-1.9309"/><path class="c" d="m45.5,24c0,11.8742-9.6258,21.5-21.5,21.5S2.5,35.8742,2.5,24m43,0c0-11.8742-9.6258-21.5-21.5-21.5S2.5,12.1258,2.5,24"/></svg>

<svg xmlns="http://www.w3.org/2000/svg" viewBox="0 0 48 48"><defs><style>.a{fill:none;stroke:#fff;stroke-linecap:round;stroke-linejoin:round;}</style></defs> <path class="a"                    d="M24.23,2.44C36.17,2.44,45.84,12.17,45.84,24.18C45.84,36.18,36.17,45.92,24.23,45.92C12.30,45.92,2.63,36.18,2.63,24.18C2.63,12.17,12.30,2.44,24.23,2.44z"/> <path class="a"                    d="M19.03,21.30C27.82,12.10,34.52,12.79,30.82,20.38C31.28,15.09,26.20,15.09,19.03,21.30z"/> <path class="a"                    d="M23.33,12.14C28.28,6.12,33.36,6.81,34.06,13.02C31.51,9.57,26.66,10.03,23.33,12.14z"/> <path class="a"                    d="M14.61,11.36C16.47,11.65,17.57,14.47,17.08,17.68C16.59,20.88,14.68,23.25,12.83,22.96C10.97,22.68,9.86,19.85,10.36,16.64C10.85,13.44,12.75,11.07,14.61,11.36z"/> <path class="a"                    d="M13.26,16.93C14.41,24.06,18.57,12.10,13.95,15.32Q14.87,16.93,13.26,16.93z"/> <path class="a"                    d="M7.94,25.44C15.80,27.74,26.20,27.51,39.14,19.00C34.52,40.62,19.96,54.66,7.94,25.44z"/> <path class="a"                    d="M18.34,40.62C22.27,35.33,23.43,33.95,32.90,35.10"/> <path class="a"                    d="M17.42,3.82Q19.03,6.35,19.03,9.80Q16.95,4.51,10.02,8.19"/></svg>
